X:126
M:6/8
L:1/8
K:G
|: B2G B2G | F2G AFD | B2G B2G | cBc ABc | B2G B2G | F2G AFD | gfg edc | BcA G3 :|

